svg/u1f1fa.svg

<svg viewBox="0 0 128 128" xmlns="http://www.w3.org/2000/svg">
  <path d="m109.05 16.65h-24.63c-1.24 0-2.24 1-2.24 2.24v49.74c0 0.07-0.1 6.96-0.36 11.03-1.58 9.94-7.09 14.38-17.82 14.38s-16.23-4.43-17.79-14.17c-0.29-4.28-0.38-11.17-0.38-11.21v-49.77c0-1.24-1.01-2.24-2.24-2.24h-24.64c-1.23 0-2.24 1-2.24 2.24v49.76c0 0.32 0.02 7.82 1.09 16.76 1.64 10.26 7 19.63 11.59 24.37 2.99 3.07 14.3 13.11 34.61 13.11 20.32 0 31.62-10.04 34.61-13.11 4.59-4.73 9.95-14.1 11.6-24.45 1.08-8.87 1.09-16.37 1.09-16.68v-49.76c-0.01-1.24-1.01-2.24-2.25-2.24z" fill="#40C0E7"/>
</svg>

<svg viewBox="0 0 128 128" xmlns="http://www.w3.org/2000/svg">
  <defs/>
  <path d="M109.05,16.65 L84.42,16.65 C83.18,16.65 82.18,17.65 82.18,18.89 L82.18,68.63 C82.18,68.7 82.08,75.59 81.82,79.66 C80.24,89.6 74.73,94.04 64,94.04 C53.27,94.04 47.77,89.61 46.21,79.87 C45.92,75.59 45.83,68.7 45.83,68.66 L45.83,18.89 C45.83,17.65 44.82,16.65 43.59,16.65 L18.95,16.65 C17.72,16.65 16.71,17.65 16.71,18.89 L16.71,68.65 C16.71,68.97 16.73,76.47 17.8,85.41 C19.44,95.67 24.8,105.04 29.39,109.78 C32.38,112.85 43.69,122.89 64,122.89 C84.32,122.89 95.62,112.85 98.61,109.78 C103.2,105.05 108.56,95.68 110.21,85.33 C111.29,76.46 111.3,68.96 111.3,68.65 L111.3,18.89 C111.29,17.65 110.29,16.65 109.05,16.65 Z" fill="#40C0E7"/>
</svg>
